X:620
T:
S:Angläs, ur en gammal notbok från Hogrän.
R:kadrilj
O:Gotland, Hogrän
M:2/4
L:1/16
K:F
.c2.f2.e2.g2|f2a2d'2c'2|b2g2e2c2|fefa c2 z2|
c2f2e2g2|f2a2d'2c'2|b2g2 ecde|f2f2 f4::
b4 agfe|f2a2c2f2|edef g2a2|g2e2 c4|
b4 agfe|f2a2c2f2|e2g2 c2de|f2f2 f4:|

